suite-common/icons/assets/icons/warningTriangle.svg

<svg xmlns="http://www.w3.org/2000/svg" xml:space="preserve" fill="none" viewBox="0 0 16 16">
  <path fill="#000" fill-rule="evenodd" d="M7.747 1.283a1.75 1.75 0 0 0-1.027.55c-.115.127-.756 1.213-2.939 4.985a557 557 0 0 0-2.858 4.969 1.75 1.75 0 0 0 .227 1.802c.242.293.637.536.997.611.28.059 11.425.059 11.706 0 .3-.062.642-.247.857-.463.343-.343.488-.674.51-1.164.014-.324-.021-.52-.142-.786a551 551 0 0 0-2.859-4.972C9.998 2.977 9.397 1.957 9.28 1.83a1.75 1.75 0 0 0-1.053-.549 1.3 1.3 0 0 0-.48.002m.366 1.492a.4.4 0 0 1 .13.14c.037.061 1.291 2.224 2.786 4.805 2.91 5.025 2.792 4.806 2.666 4.945a.35.35 0 0 1-.146.081c-.137.038-10.966.037-11.104-.001-.107-.03-.205-.15-.205-.252 0-.061 5.511-9.593 5.6-9.685.064-.066.171-.079.273-.033m-.364 3.027a.75.75 0 0 0-.468.559c-.022.111-.029.56-.023 1.492.01 1.486.002 1.422.199 1.642a.733.733 0 0 0 1.086 0c.199-.222.19-.143.19-1.735V6.333l-.075-.152a.736.736 0 0 0-.909-.379m.037 4.861a.83.83 0 0 0-.473.427c-.056.127-.056.439 0 .567a.87.87 0 0 0 .38.387c.365.17.831-.011.994-.387.056-.128.056-.44 0-.567a.9.9 0 0 0-.352-.376c-.118-.061-.431-.089-.549-.051"/>
</svg>

<svg xmlns="http://www.w3.org/2000/svg" xml:space="preserve" fill="none" viewBox="0 0 16 16"><path d="M7.747 1.283 C 7.359 1.340,6.984 1.540,6.720 1.833 C 6.605 1.960,5.964 3.046,3.781 6.818 C 2.246 9.470,0.960 11.706,0.923 11.787 C 0.655 12.372,0.747 13.098,1.150 13.589 C 1.392 13.882,1.787 14.125,2.147 14.200 C 2.427 14.259,13.572 14.259,13.853 14.200 C 14.153 14.138,14.495 13.953,14.710 13.737 C 15.053 13.394,15.198 13.063,15.220 12.573 C 15.234 12.249,15.199 12.053,15.078 11.787 C 15.041 11.706,13.755 9.469,12.219 6.815 C 9.998 2.977,9.397 1.957,9.280 1.830 C 9.003 1.529,8.640 1.340,8.227 1.281 C 8.014 1.251,7.968 1.251,7.747 1.283 M8.113 2.775 C 8.148 2.791,8.206 2.854,8.243 2.915 C 8.280 2.976,9.534 5.139,11.029 7.720 C 13.939 12.745,13.821 12.526,13.695 12.665 C 13.668 12.695,13.602 12.732,13.549 12.746 C 13.412 12.784,2.583 12.783,2.445 12.745 C 2.338 12.715,2.240 12.595,2.240 12.493 C 2.240 12.432,7.751 2.900,7.840 2.808 C 7.904 2.742,8.011 2.729,8.113 2.775 M7.749 5.802 C 7.510 5.889,7.331 6.104,7.281 6.361 C 7.259 6.472,7.252 6.921,7.258 7.853 C 7.268 9.339,7.260 9.275,7.457 9.495 C 7.747 9.816,8.253 9.816,8.543 9.495 C 8.742 9.273,8.733 9.352,8.733 7.760 L 8.733 6.333 8.658 6.181 C 8.490 5.838,8.098 5.674,7.749 5.802 M7.786 10.663 C 7.587 10.729,7.394 10.902,7.313 11.090 C 7.257 11.217,7.257 11.529,7.313 11.657 C 7.376 11.804,7.544 11.974,7.693 12.044 C 8.058 12.214,8.524 12.033,8.687 11.657 C 8.743 11.529,8.743 11.217,8.687 11.090 C 8.629 10.956,8.465 10.780,8.335 10.714 C 8.217 10.653,7.904 10.625,7.786 10.663 " stroke="none" fill-rule="evenodd" fill="black"></path></svg>
